img/svg/sass-icon.svg

<svg width="120" height="120" viewBox="0 0 120 120" fill="none" xmlns="http://www.w3.org/2000/svg">
<path fill-rule="evenodd" clip-rule="evenodd" d="M1.14282 52.6462C1.14282 53.3053 1.33688 53.7403 1.44563 54.1631C2.15438 56.9128 3.67782 59.2725 5.48532 61.425C8.0597 64.4925 11.2125 66.9619 14.4422 69.2841C17.2434 71.2978 20.1019 73.2666 22.9144 75.2653C23.3972 75.6084 23.8538 76.0031 24.3778 76.4241C23.9269 76.6678 23.5519 76.8825 23.1619 77.0803C19.4503 78.9628 15.8794 81.0731 12.5878 83.6297C10.6041 85.1709 8.68595 86.8087 7.33126 88.9491C5.15157 92.3916 4.38001 96.0591 6.0047 99.975C6.47907 101.119 7.20282 102.107 8.22376 102.837C8.5547 103.073 8.92595 103.308 9.31313 103.4C10.305 103.633 11.3156 103.786 12.3197 103.971L15.1631 103.969C18.3075 103.688 21.1697 102.611 23.7563 100.826C27.7988 98.0362 30.5222 94.2956 31.6931 89.4947C32.5444 86.0053 32.5791 82.5122 31.5759 79.0387C31.4831 78.7162 31.3659 78.4003 31.2441 78.0881C31.1222 77.7759 30.9788 77.4722 30.81 77.0831L37.2563 73.3762L37.3528 73.4588C37.2356 73.8422 37.1109 74.2247 37.005 74.6119C36.2391 77.4094 35.73 80.2556 35.9128 83.1591C36.1078 86.2528 36.9713 89.1487 38.7825 91.7334C40.2469 93.8241 43.7363 93.9019 45.2925 91.8038C45.8447 91.0584 46.38 90.2794 46.7822 89.4478C47.8331 87.2775 48.8063 85.0688 49.8103 82.875L49.9856 82.4738C49.9134 83.5125 49.8291 84.4247 49.7906 85.3378C49.7306 86.7638 49.8141 88.1813 50.3016 89.5378C50.7188 90.6984 51.4284 91.5656 52.7578 91.7184C53.6672 91.8225 54.3919 91.4062 55.0603 90.8784C56.1047 90.0544 56.9531 89.0362 57.5831 87.8794C59.3653 84.6066 61.1953 81.3534 62.8106 77.9981C64.5581 74.3691 66.0863 70.6341 67.7091 66.9431L67.9772 66.2888C68.3606 67.7953 68.6278 69.2709 69.12 70.6678C69.6919 72.2887 70.3997 73.8712 71.1703 75.4097C71.535 76.1362 71.4928 76.6078 70.9875 77.2172C68.8725 79.7672 66.7941 82.3481 64.7138 84.9262C64.2534 85.4953 63.795 86.0747 63.4116 86.6962C63.18 87.0741 63.0263 87.5344 62.9616 87.975C62.8369 88.8169 63.3572 89.6287 64.2581 89.8228C65.0813 90 65.9578 90.0656 66.7969 90.0037C69.7003 89.79 72.3366 88.7709 74.6672 87.0441C77.6869 84.8072 78.6563 81.7547 77.925 78.1369C77.7272 77.1553 77.3775 76.2009 77.0372 75.255C76.8844 74.8284 76.8741 74.5294 77.1525 74.1319C79.5666 70.6847 81.6291 67.0275 83.5472 63.2859C83.6231 63.1387 83.7009 62.9916 83.8341 62.8341C84.4556 66.0684 85.3913 69.1856 87.0675 72.0141C86.2125 72.8381 85.3659 73.5853 84.6 74.4084C82.9134 76.2216 81.4509 78.1903 80.6878 80.5912C80.3597 81.6262 80.1075 82.6781 80.2538 83.7834C80.4806 85.5 81.8869 86.6156 83.5753 86.2247C87.1884 85.3884 90.3075 83.6859 92.5866 80.67C94.1203 78.6394 94.26 76.3744 93.6178 74.0016C93.4416 73.3566 93.2325 72.7219 93.0075 71.9822C93.8991 71.7056 94.7681 71.3738 95.6672 71.1684C100.335 70.1034 104.952 70.2891 109.45 71.9747C112.076 72.9591 114.198 74.6063 115.456 77.1975C116.993 80.3653 116.143 83.3709 113.157 85.3734C112.879 85.56 112.56 85.7072 112.329 85.9406C112.188 86.0841 112.103 86.3709 112.137 86.5687C112.157 86.6841 112.462 86.8284 112.637 86.8266C113.618 86.8191 114.414 86.3044 115.178 85.7756C117.093 84.4509 118.49 82.6688 118.791 80.3222L118.85 80.1459L118.778 78.6178C118.748 78.5297 118.799 78.4425 118.793 78.3759C118.386 74.9587 116.56 72.3084 113.905 70.2309C110.83 67.8263 107.199 66.8362 103.359 66.6797C100.23 66.5522 97.1541 67.0172 94.2047 68.0887C93.3638 68.3934 92.5303 68.7544 91.6847 69.0947C91.5713 68.8894 91.4494 68.6925 91.3491 68.4891C90.4809 66.7116 89.4291 65.0128 89.1966 62.9747C89.0316 61.5272 88.8291 60.0816 89.1731 58.65C89.5041 57.2728 89.9353 55.9191 90.3413 54.5606C90.5503 53.8613 90.4031 53.4694 89.7356 53.1544C89.5031 53.0447 89.25 52.9491 88.9988 52.9125C87.3581 52.6744 85.74 52.8103 84.1509 53.2725C83.5884 53.4366 83.1797 53.7516 83.055 54.3741C82.9838 54.7313 82.8384 55.0734 82.7372 55.4259C82.3219 56.8912 82.0275 58.3847 81.3563 59.7806C79.6744 63.2822 77.7544 66.6516 75.7894 69.9966C75.5766 70.3575 75.3525 70.7119 75.0844 71.1497C74.3944 69.7059 73.6584 68.4103 73.4353 66.8916C73.1831 65.1741 72.9844 63.4594 73.4119 61.755C73.7297 60.4838 74.145 59.2359 74.5275 57.9816C74.7084 57.3853 74.625 57.0722 74.085 56.7581C73.8122 56.5997 73.5038 56.4591 73.1963 56.4131C71.4947 56.1609 69.8184 56.2931 68.1769 56.8237C67.6678 56.9887 67.4006 57.3178 67.245 57.8428C66.7875 59.3916 66.3975 60.9778 65.7553 62.4506C63.1547 68.4131 60.4791 74.3447 57.8063 80.2753C57.2484 81.5137 56.595 82.7091 55.9659 83.9147C55.8066 84.2203 55.5741 84.4894 55.3753 84.7763C55.2159 84.5878 55.1541 84.4584 55.155 84.3291C55.1597 83.5669 55.0688 82.7822 55.2141 82.0453C55.6538 79.8159 56.16 77.5988 56.6934 75.39C57.1341 73.5656 57.6469 71.7581 58.1353 69.9459C58.2994 69.3394 58.3022 68.7722 57.8663 68.2622C57.1341 67.4081 55.6041 67.2206 54.6966 67.8787L54.2953 68.1056L54.3731 67.4588C54.5644 66.0722 54.6028 64.6903 54.2222 63.3244C53.7478 61.6219 52.5328 60.6422 50.7666 60.6966C49.9434 60.7219 49.0791 60.8625 48.3169 61.1625C45.1116 62.4187 42.6469 64.6434 40.5488 67.32C40.3584 67.5628 40.1072 67.7841 39.8391 67.9331C37.1269 69.4369 34.4063 70.9219 31.6866 72.4125L28.6594 74.0709C27.8475 73.2966 27.1097 72.4931 26.2725 71.8116C23.7159 69.7266 21.1181 67.6931 18.5438 65.6316C16.2619 63.8044 14.0513 61.9012 12.36 59.4816C11.1019 57.6816 10.2909 55.7119 10.2131 53.4862C10.1147 50.6503 10.9191 48.0591 12.3628 45.6469C14.2097 42.5606 16.7288 40.0837 19.4981 37.8403C22.4278 35.4684 25.5966 33.4547 28.8806 31.6162C33.4753 29.0447 38.2013 26.7684 43.2684 25.2656C48.4641 23.7244 53.7356 22.8422 59.1731 23.4572C61.3106 23.6991 63.3863 24.1884 65.2922 25.2338C66.7519 26.0334 67.9491 27.0806 68.5059 28.7175C69.0553 30.3281 69.0384 31.9603 68.6578 33.5962C67.8844 36.9094 66.0703 39.6403 63.7875 42.0806C60.0431 46.0809 55.4756 48.8044 50.3334 50.6034C47.3663 51.6413 44.3138 52.2928 41.1788 52.5563C38.6203 52.7709 36.1153 52.5441 33.6928 51.6544C32.0888 51.0647 30.6919 50.1628 29.5688 48.8541C29.3681 48.6197 29.1113 48.3656 28.7372 48.585C28.3706 48.8006 28.3059 49.1494 28.4288 49.5028C28.6341 50.0897 28.8234 50.7009 29.1431 51.2259C29.9466 52.5431 31.1184 53.4984 32.4084 54.3178C34.8863 55.8937 37.6556 56.4234 40.5272 56.5463C44.8847 56.7347 49.1363 56.0841 53.3278 54.915C59.3119 53.2463 64.515 50.2988 68.6878 45.6488C72.1622 41.7769 74.6438 37.4072 75.1753 32.1309C75.435 29.5556 75.1584 27.0328 73.9528 24.6834C72.645 22.1381 70.5656 20.2453 68.0794 18.9413C64.4588 17.0428 60.5513 15.9375 56.5181 15.9375H52.4775C47.5931 15.9375 42.8709 17.3372 38.2809 19.0069C34.8066 20.2716 31.3997 21.7641 28.0922 23.4159C20.8894 27.015 14.1816 31.3547 8.67188 37.3219C5.92688 40.2947 3.60282 43.575 2.26595 47.4375C1.87501 48.5681 1.50376 49.7803 1.22438 50.9494M27.3234 84.7116C27.0113 88.8919 25.1166 92.2809 22.02 95.0259C20.2781 96.5691 18.2803 97.6678 15.9534 98.0541C15.1097 98.1938 14.2463 98.2275 13.4278 97.8778C12.2606 97.3791 11.9991 96.3431 11.9766 95.2397C11.9419 93.4809 12.5578 91.8909 13.4025 90.3778C14.505 88.4053 16.1213 86.9016 17.8472 85.4972C20.5659 83.2837 23.5153 81.4106 26.5359 79.6425L26.7638 79.5487C27.2306 81.2737 27.4528 82.9772 27.3234 84.7116ZM50.9091 66.5438C50.6888 67.8788 50.4131 69.2147 50.0231 70.5084C48.675 74.9869 46.9434 79.3266 45.0713 83.6081C44.7253 84.4003 44.2219 85.1231 43.7841 85.8741C43.7166 85.9903 43.6163 86.0906 43.5188 86.1872C42.9769 86.7225 42.4631 86.6944 42.1894 85.9941C41.8706 85.1803 41.6747 84.3094 41.5059 83.4478C41.3925 82.8694 41.4197 82.2619 41.3841 81.6694C41.4206 77.4562 42.7059 73.6275 44.8866 70.0631C45.7856 68.5931 46.7644 67.1925 48.2597 66.2625C48.7191 65.9766 49.2347 65.7469 49.755 65.6006C50.5519 65.3766 51.0413 65.745 50.9091 66.5438ZM67.0003 87.045L72.7838 80.2922C73.0247 82.8 68.7619 87.8062 67.0003 87.045ZM85.4719 82.5009C85.0631 82.7353 84.6178 82.9041 84.1988 83.1206C83.8153 83.3194 83.6888 83.1187 83.6775 82.7887C83.67 82.5647 83.7028 82.3303 83.7647 82.1128C84.5456 79.3584 85.9828 77.0072 88.1213 75.0947L88.2713 75.0178C89.2884 77.8631 88.1128 80.9878 85.4719 82.5009Z" fill="#CB6699"/>
</svg>

<svg width="120" height="120" fill="none" xmlns="http://www.w3.org/2000/svg"><path fill-rule="evenodd" clip-rule="evenodd" d="M1.143 52.646c0 .66.194 1.094.303 1.517.708 2.75 2.232 5.11 4.04 7.262 2.574 3.068 5.727 5.537 8.956 7.86 2.801 2.013 5.66 3.982 8.472 5.98.483.343.94.738 1.464 1.16-.451.243-.826.457-1.216.655-3.712 1.883-7.283 3.993-10.574 6.55-1.984 1.54-3.902 3.179-5.257 5.32-2.18 3.442-2.951 7.11-1.326 11.025.474 1.144 1.198 2.132 2.219 2.862.33.236.702.471 1.09.563.991.233 2.002.386 3.006.571l2.843-.002c3.145-.281 6.007-1.358 8.593-3.143 4.043-2.79 6.766-6.53 7.937-11.331.851-3.49.886-6.983-.117-10.456-.093-.323-.21-.639-.332-.95-.122-.313-.265-.617-.434-1.006l6.446-3.707.097.083c-.117.383-.242.766-.348 1.153-.766 2.797-1.275 5.644-1.092 8.547.195 3.094 1.058 5.99 2.87 8.574 1.464 2.091 4.953 2.169 6.51.07.552-.745 1.087-1.524 1.49-2.355 1.05-2.17 2.023-4.38 3.027-6.573l.176-.401c-.073 1.038-.157 1.95-.195 2.864-.06 1.426.023 2.843.51 4.2.418 1.16 1.127 2.028 2.457 2.18.91.105 1.634-.312 2.302-.84a9.734 9.734 0 002.523-2.999c1.782-3.272 3.612-6.526 5.228-9.88 1.747-3.63 3.275-7.365 4.898-11.056l.268-.654c.384 1.506.65 2.982 1.143 4.379.572 1.62 1.28 3.203 2.05 4.742.365.726.323 1.198-.183 1.807-2.114 2.55-4.193 5.131-6.273 7.71-.46.568-.919 1.148-1.302 1.77a3.47 3.47 0 00-.45 1.278 1.629 1.629 0 001.296 1.848c.823.177 1.7.243 2.539.18 2.903-.213 5.54-1.232 7.87-2.959 3.02-2.237 3.99-5.29 3.258-8.907-.198-.982-.547-1.936-.888-2.882-.153-.427-.163-.726.115-1.123 2.415-3.447 4.477-7.105 6.395-10.846a2.23 2.23 0 01.287-.452c.622 3.234 1.557 6.352 3.233 9.18-.854.824-1.701 1.571-2.467 2.394-1.687 1.814-3.15 3.782-3.912 6.183-.328 1.035-.58 2.087-.434 3.192.227 1.717 1.633 2.833 3.321 2.442 3.613-.837 6.733-2.54 9.012-5.555 1.533-2.03 1.673-4.296 1.03-6.668-.175-.645-.385-1.28-.61-2.02.892-.276 1.761-.608 2.66-.814 4.668-1.065 9.285-.879 13.783.807 2.626.984 4.748 2.631 6.006 5.223 1.537 3.167.687 6.173-2.299 8.175-.278.187-.597.334-.828.568a.82.82 0 00-.192.628c.02.115.325.26.5.258.981-.008 1.777-.523 2.541-1.051 1.915-1.325 3.312-3.107 3.613-5.454l.059-.176-.072-1.528c-.03-.088.021-.175.015-.242-.407-3.417-2.233-6.068-4.888-8.145-3.075-2.405-6.706-3.395-10.546-3.551a23.814 23.814 0 00-9.154 1.409c-.841.304-1.675.665-2.52 1.006-.114-.206-.236-.403-.336-.606-.868-1.777-1.92-3.476-2.152-5.514-.165-1.448-.368-2.893-.024-4.325.331-1.377.762-2.73 1.168-4.09.21-.699.062-1.09-.605-1.406a2.677 2.677 0 00-.737-.242c-1.64-.238-3.259-.102-4.848.36-.563.165-.971.48-1.096 1.102-.071.357-.217.7-.318 1.052-.415 1.465-.71 2.959-1.38 4.355-1.683 3.501-3.603 6.87-5.568 10.216-.212.36-.436.715-.705 1.153-.69-1.444-1.426-2.74-1.649-4.258-.252-1.718-.45-3.433-.023-5.137.318-1.271.733-2.52 1.115-3.773.181-.597.098-.91-.442-1.224-.273-.158-.581-.299-.889-.345a10.916 10.916 0 00-5.02.41c-.508.166-.775.495-.931 1.02-.458 1.549-.848 3.135-1.49 4.608-2.6 5.962-5.276 11.894-7.949 17.824-.558 1.239-1.211 2.434-1.84 3.64-.16.305-.392.574-.59.861-.16-.188-.222-.318-.221-.447.005-.762-.086-1.547.06-2.284.439-2.23.945-4.446 1.478-6.655.441-1.824.954-3.632 1.442-5.444.164-.607.167-1.174-.269-1.684-.732-.854-2.262-1.041-3.17-.383l-.4.227.077-.647c.191-1.387.23-2.769-.15-4.135-.475-1.702-1.69-2.682-3.456-2.627-.824.025-1.688.165-2.45.465-3.205 1.257-5.67 3.481-7.768 6.158a2.43 2.43 0 01-.71.613c-2.712 1.504-5.433 2.989-8.152 4.48l-3.028 1.658c-.811-.774-1.55-1.578-2.386-2.26-2.557-2.084-5.155-4.118-7.73-6.18-2.281-1.827-4.492-3.73-6.183-6.15-1.258-1.8-2.07-3.77-2.147-5.995-.098-2.836.706-5.427 2.15-7.84 1.847-3.085 4.366-5.562 7.135-7.806 2.93-2.372 6.099-4.385 9.383-6.224 4.594-2.571 9.32-4.848 14.387-6.35 5.196-1.542 10.468-2.424 15.905-1.809 2.138.242 4.213.731 6.12 1.777 1.459.8 2.656 1.847 3.213 3.483.55 1.611.532 3.243.152 4.88-.774 3.312-2.588 6.043-4.87 8.484-3.745 4-8.312 6.723-13.455 8.522a37.008 37.008 0 01-9.154 1.953c-2.559.215-5.064-.012-7.486-.902-1.604-.59-3.001-1.491-4.124-2.8-.2-.234-.458-.488-.832-.269-.366.216-.431.564-.308.918.205.587.394 1.198.714 1.723.804 1.317 1.975 2.272 3.265 3.092 2.478 1.576 5.248 2.105 8.12 2.228 4.357.189 8.608-.462 12.8-1.631 5.984-1.669 11.187-4.616 15.36-9.266 3.474-3.872 5.956-8.242 6.487-13.518.26-2.575-.017-5.098-1.222-7.448-1.308-2.545-3.387-4.438-5.874-5.742-3.62-1.898-7.528-3.003-11.56-3.003h-4.041c-4.885 0-9.607 1.4-14.197 3.069a97.546 97.546 0 00-10.189 4.409c-7.203 3.599-13.91 7.939-19.42 13.906-2.745 2.973-5.07 6.253-6.406 10.115a37.958 37.958 0 00-1.042 3.512m26.1 33.763c-.313 4.18-2.207 7.569-5.304 10.314-1.742 1.543-3.74 2.642-6.067 3.028-.843.14-1.707.174-2.525-.176-1.167-.499-1.429-1.535-1.451-2.638-.035-1.76.58-3.35 1.425-4.862 1.103-1.973 2.72-3.476 4.445-4.88 2.719-2.214 5.668-4.087 8.689-5.856l.228-.093c.467 1.725.689 3.428.56 5.163zm23.585-18.168c-.22 1.335-.496 2.67-.886 3.964-1.348 4.479-3.08 8.819-4.952 13.1-.346.792-.85 1.515-1.287 2.266a1.585 1.585 0 01-.265.313c-.542.535-1.056.507-1.33-.193-.318-.814-.514-1.685-.683-2.546-.114-.579-.086-1.186-.122-1.779.037-4.213 1.322-8.041 3.503-11.606.899-1.47 1.877-2.87 3.373-3.8a5.88 5.88 0 011.495-.662c.797-.224 1.286.144 1.154.943zM67 87.045l5.784-6.753c.24 2.508-4.022 7.514-5.784 6.753zm18.472-4.544c-.409.234-.854.403-1.273.62-.384.198-.51-.002-.522-.332a2.235 2.235 0 01.088-.676c.78-2.755 2.218-5.106 4.356-7.018l.15-.077c1.017 2.845-.158 5.97-2.8 7.483z" fill="#CB6699"/></svg>
